public/assets/brands/val-thorens.svg

<svg fill="none" height="212" viewBox="0 0 212 212" width="212" xmlns="http://www.w3.org/2000/svg" xmlns:xlink="http://www.w3.org/1999/xlink"><clipPath id="a"><path d="m0 0h212v212h-212z"/></clipPath><g clip-path="url(#a)"><path d="m206 0h-200c-3.31371 0-6 2.68629-6 6v200c0 3.314 2.68629 6 6 6h200c3.314 0 6-2.686 6-6v-200c0-3.31371-2.686-6-6-6z" fill="#f5f5f5"/><g fill="#000"><path d="m173.41 153.39c-2.68 0-5.04-.31-6.76-2.52l1.82-1.54.99-.85s.48-.41.91-.04c.31.28.66.52 1.04.7.93.44 1.97.52 2.81.52 1.47 0 3.1-.5 3.36-1.81.17-.87-.17-1.48-1.48-1.61l-2.63-.28c-3.01-.3-4.64-1.68-4-4.89.72-3.62 3.75-5.29 7.21-5.36 2.33-.04 4.8.96 5.4 2.13.82 1.6-2.38 2.72-2.38 2.72-.14-.26-.33-.49-.56-.68-.67-.58-1.67-.8-2.77-.8-1.7 0-2.58.8-2.76 1.68-.12.63 0 1.38 1.47 1.51l2.63.27c3.3.34 4.63 2.18 4.05 5.13-.77 3.86-4.34 5.7-8.36 5.7"/><path d="m44.14 136.65c-2.38 4.34-9.88 16.8-9.88 16.8h-3.4l-1.36-23.87s4.88 2.27 4.97 7.35l.29 8.21 8.8-15.56s2.95 2.74.58 7.07z"/><path d="m52.62 146.08h-3.37c-1.54 0-2.58.73-2.91 1.98-.32 1.21.25 2.01 1.92 2.01 1.18 0 1.96-.1 2.9-.84.58-.44.92-1.14 1.21-2.21zm1.07 7.37c-1.06 0-2.03-.57-2.53-1.51-1.46 1.17-2.67 1.68-4.63 1.68s-3.2-.51-3.94-1.54c-.66-.97-.77-2.38-.36-3.92.74-2.78 3.2-5.06 7.15-5.06h4.02l.23-.87c.5-1.92-.19-2.75-2.45-2.75-1.63 0-2.44.38-3.57.06-1.05-.31-2.07-1.34-2.07-1.34 2.16-1.88 3.94-2.42 6.79-2.42 4.77 0 6.7 2.08 5.62 6.17l-3.04 11.5z"/><path d="m86.62 133.73h-1.94l-3.08 11.66c-1.71 6.78-6.68 8.07-6.68 8.07l5.22-19.72h-6.08s.56-4.15 4.96-4.15h12.85s-1.58 4.15-5.25 4.15"/><path d="m96.62 153.45 2.82-10.66c.61-2.31-.62-3.08-1.96-3.08s-2.96.8-3.56 3.08l-1.28 4.83c-1.46 5.12-5.79 5.83-5.79 5.83l6.34-23.87h4.24l-2.11 8.01c1.46-1.21 3.06-1.81 4.57-1.81 3.73 0 4.97 2.69 4 6.37l-1 3.75-2.02 7.54h-4.24"/><path d="m64.54 147.62c-1.46 5.12-5.79 5.83-5.79 5.83l6.33-23.87h4.25l-4.78 18.04"/><path d="m115.81 140.22c-.36-.5-.94-.77-1.78-.77-.79 0-1.56.26-2.17.77-1.12.91-1.62 2.42-2.1 4.23s-.79 3.35-.15 4.26c.36.5.91.77 1.76.77.8 0 1.58-.26 2.2-.77 1.12-.9 1.62-2.45 2.11-4.26s.78-3.32.14-4.23m.38 11.04c-1.64 1.39-3.72 2.15-5.87 2.15-2.52 0-3.95-1.01-4.69-2.15-1.1-1.65-.96-3.62-.12-6.81.83-3.15 1.75-5.13 3.72-6.77 1.63-1.39 3.69-2.15 5.83-2.15 2.52 0 3.98 1.01 4.73 2.15 1.1 1.64.96 3.62.13 6.77-.85 3.18-1.76 5.16-3.73 6.81z"/><path d="m133.24 140.48c-.48-.67-.93-1.04-1.98-1.04-1.31 0-3.01 1.01-3.6 3.22l-1.1 4.17c-1.54 5.84-5.93 6.36-5.93 6.36l4.63-17.48h4.14l-.44 1.67c1.32-1.17 3.01-1.83 4.78-1.87 1.67 0 2.73.44 3.59 1.64l-4.08 3.32"/><path d="m146.29 140.95c-.19-1.04-.93-1.81-2.37-1.81s-2.59.77-3.32 1.81c-.4.57-.7 1.21-.89 1.88h6.47c.16-.61.2-1.25.11-1.88zm.34 4.86h-7.71c-.59 2.25.31 3.89 2.69 3.89 1.86 0 2.92-.54 4.29-1.64l1.9 2.58c-2.2 1.78-4.13 2.75-7.2 2.75-4.02 0-7.38-1.88-5.51-8.95 1.51-5.7 5.38-8.92 9.78-8.92 4.74 0 6.48 3.55 5.21 8.35 0 0-.56 1.95-3.46 1.95"/><path d="m161.62 147.35 1.25-4.73c.62-2.38-.63-3.18-1.97-3.18s-3.06.8-3.69 3.18l-2.08 7.86-.71 2.7h-4.25l4.63-17.48h4.15l-.43 1.61c1.32-1.13 2.99-1.77 4.73-1.81 1.7 0 2.92.58 3.61 1.54 1 1.41.92 3.05.42 4.96l-2.96 11.17s-4.39.09-2.7-5.84"/><path d="m135.08 59.51c-16.09 0-29.13 13-29.13 29.03s13.04 29.03 29.13 29.03 29.13-13 29.13-29.03-13.04-29.03-29.13-29.03zm0 55.16c-14.48 0-26.22-11.7-26.22-26.12s11.74-26.12 26.22-26.12 26.22 11.7 26.22 26.12-11.74 26.11-26.22 26.11z"/><path d="m108.85 88.54c0 16.03-12.99 29.03-29.02 29.03s-29.03-12.99-29.03-29.02 12.99-29.03 29.02-29.03 29.02 12.99 29.02 29.02z"/></g><path d="m92.52 86.02h-25.1v1.22h25.1z" fill="#fff"/><path d="m88.06 99.83h-14.46v1.22h14.46z" fill="#fff"/><path d="m59.6 95.43v-5.76h3.07v5.95c0 2.15-1.43 3.14-3.84 3.14s-3.77-1.01-3.77-3.11v-5.98h3.14v5.78c0 .5.2.77.7.77s.69-.27.69-.79" fill="#fff"/><path d="m69.51 98.62-1.82-3.53h-.1v3.53h-2.73v-8.95h3.04l1.7 3.65h.08v-3.65h2.77v8.95z" fill="#fff"/><path d="m78.17 89.67h-3.04v8.94h3.04z" fill="#fff"/><path d="m85.19 92.11v6.51h-3.07v-6.51h-2l.13-2.44h7.01l-.17 2.44z" fill="#fff"/><path d="m89.14 98.62v-8.95h5.9l-.2 2.38h-2.62v1.08h2.29v2.07h-2.29v1.23h2.82l-.2 2.19z" fill="#fff"/><path d="m100.59 92.02h-.3v4.35h.36c1.05 0 1.17-.79 1.17-2.18s-.16-2.17-1.22-2.17m.09 6.6h-3.47v-8.95h3.54c3.21 0 4.19 1.7 4.19 4.28s-.96 4.67-4.26 4.67z" fill="#fff"/><path d="m67.29 84.81v-8.94h3.09v6.62h2.49l-.2 2.32z" fill="#fff"/><path d="m76.66 75.87h-3.04v8.94h3.04z" fill="#fff"/><path d="m84 84.81h-4.42l-1.83-8.94h3.33l.69 5.48h.17l.62-5.48h3.17z" fill="#fff"/><path d="m86.73 84.81v-8.94h5.91l-.2 2.37h-2.62v1.08h2.29v2.08h-2.29v1.22h2.82l-.2 2.19z" fill="#fff"/><path d="m136.8 107.28-1.92-.08s-4.42.11-6.67-5.98l-9.56-27.36s8.1 3.46 10.27 10.48z" fill="#000"/><path d="m149.18 78.3901h-1.96l-3.12 11.79c-1.73 6.86-6.76 8.16-6.76 8.16l5.28-19.95h-6.15s.56-4.2 5.02-4.2h12.99s-1.61 4.2-5.31 4.2" fill="#000"/></g></svg>

<svg width="212" height="212" viewBox="0 0 212 212" fill="none" xmlns="http://www.w3.org/2000/svg">
<g clip-path="url(#clip0_142_2222)">
<path d="M206 0H6C2.68629 0 0 2.68629 0 6V206C0 209.314 2.68629 212 6 212H206C209.314 212 212 209.314 212 206V6C212 2.68629 209.314 0 206 0Z" fill="#F5F5F5"/>
<path d="M173.41 153.39C170.73 153.39 168.37 153.08 166.65 150.87L168.47 149.33L169.46 148.48C169.46 148.48 169.94 148.07 170.37 148.44C170.68 148.72 171.03 148.96 171.41 149.14C172.34 149.58 173.38 149.66 174.22 149.66C175.69 149.66 177.32 149.16 177.58 147.85C177.75 146.98 177.41 146.37 176.1 146.24L173.47 145.96C170.46 145.66 168.83 144.28 169.47 141.07C170.19 137.45 173.22 135.78 176.68 135.71C179.01 135.67 181.48 136.67 182.08 137.84C182.9 139.44 179.7 140.56 179.7 140.56C179.56 140.3 179.37 140.07 179.14 139.88C178.47 139.3 177.47 139.08 176.37 139.08C174.67 139.08 173.79 139.88 173.61 140.76C173.49 141.39 173.61 142.14 175.08 142.27L177.71 142.54C181.01 142.88 182.34 144.72 181.76 147.67C180.99 151.53 177.42 153.37 173.4 153.37" fill="black"/>
<path d="M44.14 136.65C41.76 140.99 34.26 153.45 34.26 153.45H30.86L29.5 129.58C29.5 129.58 34.38 131.85 34.47 136.93L34.76 145.14L43.56 129.58C43.56 129.58 46.51 132.32 44.14 136.65Z" fill="black"/>
<path d="M52.62 146.08H49.25C47.71 146.08 46.67 146.81 46.34 148.06C46.02 149.27 46.59 150.07 48.26 150.07C49.44 150.07 50.22 149.97 51.16 149.23C51.74 148.79 52.08 148.09 52.37 147.02L52.62 146.08ZM53.69 153.45C52.63 153.45 51.66 152.88 51.16 151.94C49.7 153.11 48.49 153.62 46.53 153.62C44.57 153.62 43.33 153.11 42.59 152.08C41.93 151.11 41.82 149.7 42.23 148.16C42.97 145.38 45.43 143.1 49.38 143.1H53.4L53.63 142.23C54.13 140.31 53.44 139.48 51.18 139.48C49.55 139.48 48.74 139.86 47.61 139.54C46.56 139.23 45.54 138.2 45.54 138.2C47.7 136.32 49.48 135.78 52.33 135.78C57.1 135.78 59.03 137.86 57.95 141.95L54.91 153.45H53.69Z" fill="black"/>
<path d="M86.62 133.73H84.68L81.6 145.39C79.89 152.17 74.92 153.46 74.92 153.46L80.14 133.74H74.06C74.06 133.74 74.62 129.59 79.02 129.59H91.87C91.87 129.59 90.29 133.74 86.62 133.74" fill="black"/>
<path d="M96.62 153.45L99.44 142.79C100.05 140.48 98.82 139.71 97.48 139.71C96.14 139.71 94.52 140.51 93.92 142.79L92.64 147.62C91.18 152.74 86.85 153.45 86.85 153.45L93.19 129.58H97.43L95.32 137.59C96.78 136.38 98.38 135.78 99.89 135.78C103.62 135.78 104.86 138.47 103.89 142.15L102.89 145.9L100.87 153.44H96.63" fill="black"/>
<path d="M64.54 147.62C63.08 152.74 58.75 153.45 58.75 153.45L65.08 129.58H69.33L64.55 147.62" fill="black"/>
<path d="M115.81 140.22C115.45 139.72 114.87 139.45 114.03 139.45C113.24 139.45 112.47 139.71 111.86 140.22C110.74 141.13 110.24 142.64 109.76 144.45C109.28 146.26 108.97 147.8 109.61 148.71C109.97 149.21 110.52 149.48 111.37 149.48C112.17 149.48 112.95 149.22 113.57 148.71C114.69 147.81 115.19 146.26 115.68 144.45C116.17 142.64 116.46 141.13 115.82 140.22M116.2 151.26C114.56 152.65 112.48 153.41 110.33 153.41C107.81 153.41 106.38 152.4 105.64 151.26C104.54 149.61 104.68 147.64 105.52 144.45C106.35 141.3 107.27 139.32 109.24 137.68C110.87 136.29 112.93 135.53 115.07 135.53C117.59 135.53 119.05 136.54 119.8 137.68C120.9 139.32 120.76 141.3 119.93 144.45C119.08 147.63 118.17 149.61 116.2 151.26Z" fill="black"/>
<path d="M133.24 140.48C132.76 139.81 132.31 139.44 131.26 139.44C129.95 139.44 128.25 140.45 127.66 142.66L126.56 146.83C125.02 152.67 120.63 153.19 120.63 153.19L125.26 135.71H129.4L128.96 137.38C130.28 136.21 131.97 135.55 133.74 135.51C135.41 135.51 136.47 135.95 137.33 137.15L133.25 140.47" fill="black"/>
<path d="M146.29 140.95C146.1 139.91 145.36 139.14 143.92 139.14C142.48 139.14 141.33 139.91 140.6 140.95C140.2 141.52 139.9 142.16 139.71 142.83H146.18C146.34 142.22 146.38 141.58 146.29 140.95ZM146.63 145.81H138.92C138.33 148.06 139.23 149.7 141.61 149.7C143.47 149.7 144.53 149.16 145.9 148.06L147.8 150.64C145.6 152.42 143.67 153.39 140.6 153.39C136.58 153.39 133.22 151.51 135.09 144.44C136.6 138.74 140.47 135.52 144.87 135.52C149.61 135.52 151.35 139.07 150.08 143.87C150.08 143.87 149.52 145.82 146.62 145.82" fill="black"/>
<path d="M161.62 147.35L162.87 142.62C163.49 140.24 162.24 139.44 160.9 139.44C159.56 139.44 157.84 140.24 157.21 142.62L155.13 150.48L154.42 153.18H150.17L154.8 135.7H158.95L158.52 137.31C159.84 136.18 161.51 135.54 163.25 135.5C164.95 135.5 166.17 136.08 166.86 137.04C167.86 138.45 167.78 140.09 167.28 142L164.32 153.17C164.32 153.17 159.93 153.26 161.62 147.33" fill="black"/>
<path d="M135.08 59.51C118.99 59.51 105.95 72.51 105.95 88.54C105.95 104.57 118.99 117.57 135.08 117.57C151.17 117.57 164.21 104.57 164.21 88.54C164.21 72.51 151.17 59.51 135.08 59.51ZM135.08 114.67C120.6 114.67 108.86 102.97 108.86 88.55C108.86 74.13 120.6 62.43 135.08 62.43C149.56 62.43 161.3 74.13 161.3 88.55C161.3 102.97 149.56 114.66 135.08 114.66V114.67Z" fill="black"/>
<path d="M108.85 88.54C108.85 104.57 95.86 117.57 79.83 117.57C63.8 117.57 50.8 104.58 50.8 88.55C50.8 72.52 63.79 59.52 79.82 59.52C95.85 59.52 108.84 72.51 108.84 88.54H108.85Z" fill="black"/>
<path d="M92.52 86.02H67.42V87.24H92.52V86.02Z" fill="white"/>
<path d="M88.06 99.83H73.6V101.05H88.06V99.83Z" fill="white"/>
<path d="M59.6 95.43V89.67H62.67V95.62C62.67 97.77 61.24 98.76 58.83 98.76C56.42 98.76 55.06 97.75 55.06 95.65V89.67H58.2V95.45C58.2 95.95 58.4 96.22 58.9 96.22C59.4 96.22 59.59 95.95 59.59 95.43" fill="white"/>
<path d="M69.51 98.62L67.69 95.09H67.59V98.62H64.86V89.67H67.9L69.6 93.32H69.68V89.67H72.45V98.62H69.51Z" fill="white"/>
<path d="M78.17 89.67H75.13V98.61H78.17V89.67Z" fill="white"/>
<path d="M85.19 92.11V98.62H82.12V92.11H80.12L80.25 89.67H87.26L87.09 92.11H85.19Z" fill="white"/>
<path d="M89.14 98.62V89.67H95.04L94.84 92.05H92.22V93.13H94.51V95.2H92.22V96.43H95.04L94.84 98.62H89.14Z" fill="white"/>
<path d="M100.59 92.02H100.29V96.37H100.65C101.7 96.37 101.82 95.58 101.82 94.19C101.82 92.8 101.66 92.02 100.6 92.02M100.69 98.62H97.22V89.67H100.76C103.97 89.67 104.95 91.37 104.95 93.95C104.95 96.53 103.99 98.62 100.69 98.62Z" fill="white"/>
<path d="M67.29 84.81V75.87H70.38V82.49H72.87L72.67 84.81H67.29Z" fill="white"/>
<path d="M76.66 75.87H73.62V84.81H76.66V75.87Z" fill="white"/>
<path d="M84 84.81H79.58L77.75 75.87H81.08L81.77 81.35H81.94L82.56 75.87H85.73L84 84.81Z" fill="white"/>
<path d="M86.73 84.81V75.87H92.64L92.44 78.24H89.82V79.32H92.11V81.4H89.82V82.62H92.64L92.44 84.81H86.73Z" fill="white"/>
<path d="M136.8 107.28L134.88 107.2C134.88 107.2 130.46 107.31 128.21 101.22L118.65 73.86C118.65 73.86 126.75 77.32 128.92 84.34L136.8 107.28Z" fill="black"/>
<path d="M149.18 78.3901H147.22L144.1 90.1801C142.37 97.0401 137.34 98.3401 137.34 98.3401L142.62 78.3901H136.47C136.47 78.3901 137.03 74.1901 141.49 74.1901H154.48C154.48 74.1901 152.87 78.3901 149.17 78.3901" fill="black"/>
</g>
<defs>
<clipPath id="clip0_142_2222">
<rect width="212" height="212" fill="white"/>
</clipPath>
</defs>
</svg>
